common/app/assets/images/video/volume-mute-yellow.svg

<svg xmlns="http://www.w3.org/2000/svg" width="17" height="13"><path fill="#fb0" d="M1 4l-1 1v3l1 1h2l4 4h1v-13h-1l-4 4h-2zm16-.4l-.6-.6-2.9 2.6-2.9-2.6-.6.6 2.6 2.9-2.6 2.9.6.6 2.9-2.6 2.9 2.6.6-.6-2.6-2.9 2.6-2.9z"/></svg>

<svg xmlns="http://www.w3.org/2000/svg" width="17" height="13"><path fill="#fb0" d="M1 4L0 5v3l1 1h2l4 4h1V0H7L3 4H1zm16-.4l-.6-.6-2.9 2.6L10.6 3l-.6.6 2.6 2.9L10 9.4l.6.6 2.9-2.6 2.9 2.6.6-.6-2.6-2.9L17 3.6z"/></svg>
